X:1
T:Title
%%score [ ( 1 2 ) ( 3 4 ) ]
L:1/8
Q:1/4=90
M:4/4
K:D
V:1 treble nm="S A"
V:2 treble 
V:3 bass nm="T B"
V:4 bass 
V:1
"^Grosvenor (78. 78)""^S. S. Wesley\n(1810-1876)""^Arthur James Mason\n(1851-1928)""^Not a thought of earthly things" F2 A2 d2 d2 | %1
 d3 B A4 || A2 B2 G2 A2 | F2 AG F2 E2 || F2 F2 B3 B | c2 ^d2 (e2 =d2) || c2 BA d2 F2 | %7
 E2 GF E2 D2 |] %8
V:2
 D2 C2 D2 F2 | G3 G E4 || F2 F2 E2 E2 | D2 FE D2 C2 || C2 C2 F3 ^D | E2 F2 E4 || E2 C2 D2 D2 | %7
 D2 D2 C2 D2 |] %8
V:3
"^1. Not a thought of earthly things!\nEvery head in awe be bended:\nChrist our God, the King of kings,\nComes by angel troops attended.\n\n2. Forth He comes, a victim He\nFor the wide world’s need availing,\nAnd His people’s food to be,\nWith Himself their souls regaling.\n" A,2 G,2 A,2 A,2 | %1
 D3 D E4 || D2 B,2 B,2 A,2 | A,2 B,2 A,2 A,2 || %4
"^3. Cherubim with watchful eyes,\nSeraphim their brows concealing,\nPowers and principalities,\nCry aloud, like thunder pealing." ^A,2 A,2 B,3 B, | %5
 B,2 B,2 B,4 || A,2 A,2 A,2 B,2 | B,2 B,A, G,2 F,2 |] %8
V:4
 D,2 E,2 F,2 D,2 | B,,3 B,, C,4 || D,2 ^D,2 E,2 C,2 | D,2 G,,2 A,,2 A,,2 || F,2 E,2 ^D,3 B, | %5
 B,2 A,2 ^G,4 || A,2 G,2 F,2 B,2 | G,2 G,,2 A,,2 D,2 |] %8

